Numix-Circle/48x48/apps/rubyripper.svg

<?xml version="1.0" encoding="UTF-8" standalone="no"?>
<svg
   xmlns:dc="http://purl.org/dc/elements/1.1/"
   xmlns:cc="http://creativecommons.org/ns#"
   xmlns:rdf="http://www.w3.org/1999/02/22-rdf-syntax-ns#"
   xmlns:svg="http://www.w3.org/2000/svg"
   xmlns="http://www.w3.org/2000/svg"
   xmlns:xlink="http://www.w3.org/1999/xlink"
   xmlns:sodipodi="http://sodipodi.sourceforge.net/DTD/sodipodi-0.dtd"
   xmlns:inkscape="http://www.inkscape.org/namespaces/inkscape"
   width="48"
   viewBox="0 0 13.546667 13.546667"
   height="48"
   id="svg2"
   version="1.1"
   inkscape:version="0.91 r13725"
   sodipodi:docname="rubyripper.svg">
  <metadata
     id="metadata331">
    <rdf:RDF>
      <cc:Work
         rdf:about="">
        <dc:format>image/svg+xml</dc:format>
        <dc:type
           rdf:resource="http://purl.org/dc/dcmitype/StillImage" />
        <dc:title />
      </cc:Work>
    </rdf:RDF>
  </metadata>
  <sodipodi:namedview
     pagecolor="#ffffff"
     bordercolor="#666666"
     borderopacity="1"
     objecttolerance="10"
     gridtolerance="10"
     guidetolerance="10"
     inkscape:pageopacity="0"
     inkscape:pageshadow="2"
     inkscape:window-width="1366"
     inkscape:window-height="713"
     id="namedview329"
     showgrid="false"
     inkscape:zoom="16"
     inkscape:cx="25.495237"
     inkscape:cy="23.200411"
     inkscape:window-x="0"
     inkscape:window-y="28"
     inkscape:window-maximized="1"
     inkscape:current-layer="layer2"
     inkscape:snap-to-guides="false"
     showguides="true"
     inkscape:guide-bbox="true">
    <inkscape:grid
       type="xygrid"
       id="grid3308" />
  </sodipodi:namedview>
  <defs
     id="defs4">
    <linearGradient
       id="linearGradient4073">
      <stop
         style="stop-color:#e93131;stop-opacity:1;"
         offset="0"
         id="stop4075" />
      <stop
         style="stop-color:#eb4343;stop-opacity:1;"
         offset="1"
         id="stop4077" />
    </linearGradient>
    <radialGradient
       xlink:href="#0-6"
       id="6-9"
       cx="-3"
       cy="24"
       r="10"
       gradientUnits="userSpaceOnUse" />
    <linearGradient
       id="0-6">
      <stop
         stop-color="#91b0c7"
         id="stop7-0" />
      <stop
         offset="1"
         stop-color="#91b0c7"
         stop-opacity="0"
         id="stop9-3" />
    </linearGradient>
    <radialGradient
       r="10"
       cy="24"
       cx="-3"
       gradientUnits="userSpaceOnUse"
       id="radialGradient3922"
       xlink:href="#0-6"
       inkscape:collect="always" />
    <linearGradient
       inkscape:collect="always"
       xlink:href="#linearGradient4073"
       id="linearGradient4079"
       x1="-25.499998"
       y1="15"
       x2="-25.499998"
       y2="11"
       gradientUnits="userSpaceOnUse" />
    <clipPath
       id="clipPath-579811960">
      <g
         transform="translate(0,-1004.3622)"
         id="g3091">
        <path
           style="fill:#1890d0"
           inkscape:connector-curvature="0"
           d="m -24,13 c 0,1.105 -0.672,2 -1.5,2 -0.828,0 -1.5,-0.895 -1.5,-2 0,-1.105 0.672,-2 1.5,-2 0.828,0 1.5,0.895 1.5,2 z"
           transform="matrix(15.333333,0,0,11.5,414.99999,878.8622)"
           id="path3093" />
      </g>
    </clipPath>
    <clipPath
       id="clipPath-588316483">
      <g
         transform="translate(0,-1004.3622)"
         id="g3096">
        <path
           style="fill:#1890d0"
           inkscape:connector-curvature="0"
           d="m -24,13 c 0,1.105 -0.672,2 -1.5,2 -0.828,0 -1.5,-0.895 -1.5,-2 0,-1.105 0.672,-2 1.5,-2 0.828,0 1.5,0.895 1.5,2 z"
           transform="matrix(15.333333,0,0,11.5,414.99999,878.8622)"
           id="path3098" />
      </g>
    </clipPath>
    <linearGradient
       id="linear0"
       gradientUnits="userSpaceOnUse"
       y1="279.10001"
       x2="0"
       y2="268.32999"
       gradientTransform="matrix(2.797157,0,0,2.797157,-332.97333,-741.65338)">
      <stop
         stop-color="#c8c8c8"
         stop-opacity="1"
         id="stop3101" />
      <stop
         offset="1"
         stop-color="#eaeaea"
         stop-opacity="1"
         id="stop3103" />
    </linearGradient>
    <clipPath
       id="clipPath-124071972">
      <g
         transform="translate(0,-1004.3622)"
         id="g12-0">
        <path
           style="fill:#1890d0"
           inkscape:connector-curvature="0"
           d="m -24,13 c 0,1.105 -0.672,2 -1.5,2 -0.828,0 -1.5,-0.895 -1.5,-2 0,-1.105 0.672,-2 1.5,-2 0.828,0 1.5,0.895 1.5,2 z"
           transform="matrix(15.333333,0,0,11.5,414.99999,878.8622)"
           id="path14-6" />
      </g>
    </clipPath>
    <clipPath
       id="clipPath-137054130">
      <g
         transform="translate(0,-1004.3622)"
         id="g17-1">
        <path
           style="fill:#1890d0"
           inkscape:connector-curvature="0"
           d="m -24,13 c 0,1.105 -0.672,2 -1.5,2 -0.828,0 -1.5,-0.895 -1.5,-2 0,-1.105 0.672,-2 1.5,-2 0.828,0 1.5,0.895 1.5,2 z"
           transform="matrix(15.333333,0,0,11.5,414.99999,878.8622)"
           id="path19-9" />
      </g>
    </clipPath>
    <linearGradient
       inkscape:collect="always"
       xlink:href="#linear0-9-5"
       id="linearGradient4017"
       gradientUnits="userSpaceOnUse"
       gradientTransform="matrix(0.52327395,-0.47801668,0.50510246,0.41591337,-2.38027,21.644502)"
       x1="23.295"
       y1="36.865002"
       x2="23.667999"
       y2="3.6210001" />
    <linearGradient
       id="linear0-9-5"
       gradientUnits="userSpaceOnUse"
       x1="23.295"
       y1="36.865002"
       x2="23.667999"
       y2="3.6210001">
      <stop
         stop-color="#db3434"
         stop-opacity="1"
         id="stop22-3"
         offset="0"
         style="stop-color:#e93131;stop-opacity:1;" />
      <stop
         offset="1"
         stop-color="#fb5b5b"
         stop-opacity="1"
         id="stop24-6"
         style="stop-color:#ff4343;stop-opacity:1;" />
    </linearGradient>
  </defs>
  <g
     inkscape:groupmode="layer"
     id="layer1"
     inkscape:label="Shadow"
     sodipodi:insensitive="true">
    <path
       style="opacity:0.05;fill:#000000;fill-opacity:1;stroke:none"
       d="M 25,2 C 12.297451,2 2,12.297451 2,25 2,31.367153 4.6007106,37.116628 8.78125,41.28125 12.865755,44.99361 18.29568,47.25 24.25,47.25 c 12.702549,0 23,-10.297451 23,-23 0,-5.95432 -2.25639,-11.384245 -5.96875,-15.46875 C 37.116628,4.6007105 31.367153,2 25,2 z M 41.28125,8.78125 C 45.135604,12.894061 47.5,18.418655 47.5,24.5 c 0,12.702549 -10.297451,23 -23,23 C 18.418655,47.5 12.894061,45.135604 8.78125,41.28125 12.940939,45.4251 18.664604,48 25,48 37.702549,48 48,37.702549 48,25 48,18.664604 45.4251,12.940939 41.28125,8.78125 z"
       transform="scale(0.28222223,0.28222223)"
       id="path3978"
       inkscape:connector-curvature="0" />
    <path
       style="opacity:0.1;fill:#000000;fill-opacity:1;stroke:none"
       d="M 41.28125,8.78125 C 44.99361,12.865755 47.25,18.29568 47.25,24.25 c 0,12.702549 -10.297451,23 -23,23 -5.95432,0 -11.384245,-2.25639 -15.46875,-5.96875 C 12.894061,45.135604 18.418655,47.5 24.5,47.5 c 12.702549,0 23,-10.297451 23,-23 0,-6.081345 -2.364396,-11.605939 -6.21875,-15.71875 z"
       transform="scale(0.28222223,0.28222223)"
       id="path3976"
       inkscape:connector-curvature="0" />
    <path
       transform="matrix(4.3274074,0,0,3.2455556,117.19278,-35.348334)"
       d="m -24,13 a 1.5,2 0 1 1 -3,0 1.5,2 0 1 1 3,0 z"
       sodipodi:ry="2"
       sodipodi:rx="1.5"
       sodipodi:cy="13"
       sodipodi:cx="-25.5"
       id="path3952"
       style="opacity:0.2;fill:#000000;fill-opacity:1;stroke:none"
       sodipodi:type="arc" />
  </g>
  <g
     inkscape:groupmode="layer"
     id="layer2"
     inkscape:label="Base">
    <path
       sodipodi:type="arc"
       style="opacity:1;fill:url(#linearGradient4079);fill-opacity:1.0;stroke:none"
       id="path3942"
       sodipodi:cx="-25.5"
       sodipodi:cy="13"
       sodipodi:rx="1.5"
       sodipodi:ry="2"
       d="m -24,13 a 1.5,2 0 1 1 -3,0 1.5,2 0 1 1 3,0 z"
       transform="matrix(4.3274075,0,0,3.2455556,117.12222,-35.418889)" />
    <path
       style="opacity:0.1;fill:#000000;fill-opacity:1;stroke:none"
       d="M 40.03125 7.53125 C 43.74361 11.615755 46 17.04568 46 23 C 46 35.702549 35.702549 46 23 46 C 17.04568 46 11.615755 43.74361 7.53125 40.03125 C 11.709416 44.322508 17.537578 47 24 47 C 36.702549 47 47 36.702549 47 24 C 47 17.537578 44.322508 11.709416 40.03125 7.53125 z "
       id="path4027"
       transform="scale(0.28222223,0.28222223)" />
    <use
       id="use102"
       xlink:href="#7"
       transform="matrix(0.39511112,0,0,0.39511112,7.9586669,-2.4271114)"
       style="opacity:0.2"
       x="0"
       y="0"
       width="744.09448"
       height="1052.3622" />
    <use
       id="use104-7"
       xlink:href="#7"
       transform="matrix(0.39511112,0,0,0.39511112,7.9586669,-2.7093336)"
       style="fill:#f9f9f9"
       x="0"
       y="0"
       width="744.09448"
       height="1052.3622" />
    <use
       id="use108-3"
       xlink:href="#7"
       transform="matrix(0.31044445,0,0,0.31044445,7.7046669,-0.67733354)"
       style="fill:#355464"
       x="0"
       y="0"
       width="744.09448"
       height="1052.3622" />
    <use
       id="use110"
       xlink:href="#7"
       transform="matrix(0.22577778,0,0,0.22577778,7.4506669,1.3546665)"
       style="fill:#566d80"
       x="0"
       y="0"
       width="744.09448"
       height="1052.3622" />
    <use
       id="use112"
       xlink:href="#7"
       transform="matrix(0.16933334,0,0,0.16933334,7.2813335,2.7093332)"
       style="fill:#355464"
       x="0"
       y="0"
       width="744.09448"
       height="1052.3622" />
    <use
       id="use114"
       xlink:href="#7"
       transform="matrix(0.05644445,0,0,0.05644445,6.9426669,4.5719999)"
       style="fill:url(#6-9)"
       x="0"
       y="0"
       width="744.09448"
       height="1052.3622" />
    <use
       id="use116"
       xlink:href="#7"
       transform="matrix(0.02822222,0,0,0.02822222,6.8580002,6.6604444)"
       style="fill:url(#radialGradient3922)"
       x="0"
       y="0"
       width="744.09448"
       height="1052.3622" />
    <g
       id="g4113"
       transform="matrix(0.04105051,0,0,0.04105051,1.6882017,1.9729894)"
       style="fill:#fdfbfb;fill-opacity:1" />
    <g
       transform="scale(0.28222223,0.28222223)"
       id="g3125">
      <g
         clip-path="url(#clipPath-579811960)"
         id="g3127">
        <g
           transform="translate(1,1)"
           id="g3129">
          <g
             style="opacity:0.1"
             id="g3131">
            <!-- color: #409bcb -->
            <g
               id="g3133">
              <path
                 style="fill:#000000;fill-rule:evenodd;stroke:none"
                 inkscape:connector-curvature="0"
                 d="m 24,9 c 8.281,0 14.996,6.715 14.996,15 0,8.281 -6.715,14.996 -14.996,14.996 C 15.715,38.996 9,32.281 9,24 9,15.715 15.715,9 24,9 m 0,0"
                 id="path3135" />
            </g>
          </g>
        </g>
      </g>
    </g>
    <g
       id="g3419">
      <g
         id="g4119"
         transform="scale(0.28222223,0.28222223)">
        <g
           id="g5381">
          <g
             id="g3157">
            <g
               id="g3159"
               clip-path="url(#clipPath-588316483)">
              <!-- color: #409bcb -->
              <g
                 id="g3161">
                <path
                   id="path3163"
                   d="m 24,9 c 8.281,0 14.996,6.715 14.996,15 0,8.281 -6.715,14.996 -14.996,14.996 C 15.715,38.996 9,32.281 9,24 9,15.715 15.715,9 24,9 m 0,0"
                   inkscape:connector-curvature="0"
                   style="fill:url(#linear0);fill-rule:evenodd;stroke:none" />
                <path
                   sodipodi:nodetypes="ccscccccc"
                   style="fill:#ffffff;fill-opacity:0.49800002;fill-rule:nonzero;stroke:none"
                   inkscape:connector-curvature="0"
                   id="path3165"
                   d="m 34.47,34.68 c 0.691,-0.682248 1.313,-1.438546 1.863,-2.24125 0.547,-0.798754 1.023,-1.666621 1.41,-2.569045 0.387,-0.902424 0.68,-1.847303 0.883,-2.830689 C 38.825,26.055631 38.935,25.037689 38.935,24 L 28.3,24 c 0,0.624983 -0.16,1.22627 -0.39,1.766342 -0.227,0.540072 -0.616,1.02584 -1.03,1.434597 l 7.594,7.478074" />
                <path
                   style="fill:#ffffff;fill-opacity:0.49800002;fill-rule:nonzero;stroke:none"
                   inkscape:connector-curvature="0"
                   id="path3167"
                   d="m 13.496,13.289 c -0.688,0.683723 -1.309,1.439992 -1.855,2.247939 -0.547,0.807946 -1.02,1.673531 -1.402,2.577874 C 9.852,19.019156 9.559,19.966232 9.36,20.949084 9.157,21.934918 9.051,22.956527 9.051,24 l 10.664,0 c 0,-0.629065 0.125,-1.230304 0.359,-1.769929 0.23,-0.543599 0.563,-1.032541 0.973,-1.439992 l -7.539,-7.49611 m -0.012,-0.004" />
                <path
                   sodipodi:nodetypes="cccc"
                   style="fill:#ffffff;fill-opacity:0.49800002;fill-rule:nonzero;stroke:none"
                   inkscape:connector-curvature="0"
                   id="path3171"
                   d="m 10.343,30.207 c 0.75,1.652 1.793,3.133 3.059,4.398 l 7.558,-7.566 c -0.359,-0.363 -0.669,-0.801 -0.88,-1.273" />
                <path
                   sodipodi:nodetypes="ccccc"
                   style="fill:#ffffff;fill-opacity:0.49800002;fill-rule:nonzero;stroke:none"
                   inkscape:connector-curvature="0"
                   id="path3173"
                   d="M 34.602,13.398 27.04,20.96 c 0.363,0.363 0.67,0.801 0.885,1.273 l 9.736,-4.445 C 36.907,16.14 35.868,14.659 34.602,13.393" />
                <path
                   style="fill:#999999;fill-opacity:0.49800002;fill-rule:nonzero;stroke:none"
                   inkscape:connector-curvature="0"
                   id="path3175"
                   d="m 39,24 c 0,1.353134 -0.18,2.698213 -0.535,4 L 24,24 m 15,0" />
                <path
                   id="path3177"
                   d="M 9,24 C 9,22.656 9.18,21.32 9.535,20.027 L 24,24 M 9,24"
                   inkscape:connector-curvature="0"
                   style="fill:#999999;fill-opacity:0.49800002;fill-rule:nonzero;stroke:none" />
                <path
                   id="path3179"
                   d="m 24,9 c 1.344,0 2.68,0.18 3.973,0.535 L 24,24 M 24,9"
                   inkscape:connector-curvature="0"
                   style="fill:#ff8dff;fill-opacity:0.49800002;fill-rule:nonzero;stroke:none" />
                <path
                   id="path3181"
                   d="m 24,39 c -1.344,0 -2.68,-0.18 -3.973,-0.535 L 24,24 m 0,15"
                   inkscape:connector-curvature="0"
                   style="fill:#ff8dff;fill-opacity:0.49800002;fill-rule:nonzero;stroke:none" />
              </g>
            </g>
          </g>
        </g>
        <g
           id="g46"
           transform="matrix(0.31934807,-0.31881336,0.30825822,0.27739353,1.8873265,21.743744)">
          <g
             clip-path="url(#clipPath-124071972)"
             id="g48">
            <g
               transform="translate(1,1)"
               id="g50">
              <g
                 id="g52"
                 style="opacity:0.1">
                <!-- color: #5173bf -->
                <g
                   id="g54" />
              </g>
            </g>
          </g>
        </g>
        <g
           id="g74"
           transform="matrix(0.32013076,-0.32490868,0.30901372,0.28269696,1.9750363,21.295182)">
          <g
             clip-path="url(#clipPath-137054130)"
             id="g76">
            <!-- color: #5173bf -->
            <g
               id="g78" />
          </g>
        </g>
      </g>
      <path
         d="M 5.098815,5.5132709 4.7977779,6.4672615 7.0555562,9.877778 9.3133332,6.4672615 9.0122962,5.5132709 l -1.386972,-0.715493 -1.126931,0"
         id="path58"
         inkscape:connector-curvature="0"
         style="opacity:0.1;fill:#000000;fill-opacity:1;fill-rule:nonzero;stroke:none"
         sodipodi:nodetypes="ccccccc" />
      <g
         id="g4128"
         transform="matrix(0.2508642,0,0,0.23888181,1.0034569,1.1712103)">
        <path
           sodipodi:nodetypes="ccccccc"
           inkscape:connector-curvature="0"
           style="fill:url(#linearGradient4017);fill-rule:nonzero;stroke:none"
           id="path80"
           d="m 23,35 -9,-14 1.3,-4 5.5,-3 4.4,0 5.5,3 1.3,4" />
        <path
           sodipodi:nodetypes="cccccccccccccccccccccccccccccccccccccccccccccccccccccc"
           inkscape:connector-curvature="0"
           id="path82"
           d="M 30.799937,17 32,21 23,35.265747 14,21 15.20003,17 20.7,14 25.3,14 Z M 30.54,17.2 l -1.77,-0.97 0.63,1.99 2.15,2.3 z m -5.34,-2.9 -4.4,0 -3.2,1.75 -0.68,2.250375 3.42,2.399375 5.32,0 L 29.08,18.3 28.4,16.05 Z m 4.07,4.3 -3.27,2.32 0.85,3.8 4.71,-3.72 z m -3.62,2.47 -5.3,0 -0.8,3.73 6.9,0 z m -8.42,-4.84 -1.77,0.97 -1.01,3.32 2.15,-2.299625 z M 31.22,21.72 26.85,25.199698 23.243946,34.37 Z M 16.73,18.6 14.44,21 19.15,24.72 20,20.91975 Z m 9.7,6.65 -6.86,0 3.43,9.08 z M 14.78,21.72 22.754909,34.37 19.15,25.200305 Z"
           style="fill:#cc2012;fill-opacity:1;fill-rule:nonzero;stroke:none" />
      </g>
    </g>
  </g>
  <g
     inkscape:groupmode="layer"
     id="layer3"
     inkscape:label="Symbol" />
</svg>

<svg xmlns="http://www.w3.org/2000/svg" width="48" viewBox="0 0 13.546667 13.546667" height="48"><defs><radialGradient cx="-3" cy="24" r="10" gradientUnits="userSpaceOnUse"><stop stop-color="#91b0c7"/><stop offset="1" stop-color="#91b0c7" stop-opacity="0"/></radialGradient><linearGradient id="linearGradient4079" y1="15" x2="0" y2="11" gradientUnits="userSpaceOnUse"><stop stop-color="#e93131" stop-opacity="1"/><stop offset="1" stop-color="#eb4343" stop-opacity="1"/></linearGradient><clipPath id="clipPath-579811960"><g transform="translate(0,-1004.3622)"><path d="m -24 13 c 0 1.105 -0.672 2 -1.5 2 -0.828 0 -1.5 -0.895 -1.5 -2 0 -1.105 0.672 -2 1.5 -2 0.828 0 1.5 0.895 1.5 2 z" transform="matrix(15.333333,0,0,11.5,414.99999,878.8622)" fill="#1890d0"/></g></clipPath><clipPath id="clipPath-588316483"><g transform="translate(0,-1004.3622)"><path d="m -24 13 c 0 1.105 -0.672 2 -1.5 2 -0.828 0 -1.5 -0.895 -1.5 -2 0 -1.105 0.672 -2 1.5 -2 0.828 0 1.5 0.895 1.5 2 z" transform="matrix(15.333333,0,0,11.5,414.99999,878.8622)" fill="#1890d0"/></g></clipPath><linearGradient id="linear0" gradientUnits="userSpaceOnUse" y1="279.1" x2="0" y2="268.33" gradientTransform="matrix(2.797157,0,0,2.797157,-332.97333,-741.65338)"><stop stop-color="#c8c8c8" stop-opacity="1"/><stop offset="1" stop-color="#eaeaea" stop-opacity="1"/></linearGradient><clipPath id="clipPath-124071972"><g transform="translate(0,-1004.3622)"><path d="m -24 13 c 0 1.105 -0.672 2 -1.5 2 -0.828 0 -1.5 -0.895 -1.5 -2 0 -1.105 0.672 -2 1.5 -2 0.828 0 1.5 0.895 1.5 2 z" transform="matrix(15.333333,0,0,11.5,414.99999,878.8622)" fill="#1890d0"/></g></clipPath><clipPath id="clipPath-137054130"><g transform="translate(0,-1004.3622)"><path d="m -24 13 c 0 1.105 -0.672 2 -1.5 2 -0.828 0 -1.5 -0.895 -1.5 -2 0 -1.105 0.672 -2 1.5 -2 0.828 0 1.5 0.895 1.5 2 z" transform="matrix(15.333333,0,0,11.5,414.99999,878.8622)" fill="#1890d0"/></g></clipPath><linearGradient id="linearGradient4017" gradientUnits="userSpaceOnUse" gradientTransform="matrix(0.52327395,-0.47801668,0.50510246,0.41591337,-2.38027,21.644502)" x1="23.295" y1="36.865" x2="23.668" y2="3.621"><stop stop-color="#e93131" stop-opacity="1"/><stop offset="1" stop-color="#ff4343" stop-opacity="1"/></linearGradient></defs><g><path d="m 25 2 c -12.703 0 -23 10.297 -23 23 0 6.367 2.601 12.12 6.781 16.281 4.085 3.712 9.514 5.969 15.469 5.969 c 12.703 0 23 -10.297 23 -23 0 -5.954 -2.256 -11.384 -5.969 -15.469 c -4.165 -4.181 -9.914 -6.781 -16.281 -6.781 z m 16.281 6.781 c 3.854 4.113 6.219 9.637 6.219 15.719 c 0 12.703 -10.297 23 -23 23 c -6.081 0 -11.606 -2.364 -15.719 -6.219 4.16 4.144 9.883 6.719 16.219 6.719 12.703 0 23 -10.297 23 -23 0 -6.335 -2.575 -12.06 -6.719 -16.219 z" transform="scale(0.28222223,0.28222223)" opacity="0.05" fill="#000" stroke="none" fill-opacity="1"/><path d="m 41.28 8.781 c 3.712 4.085 5.969 9.514 5.969 15.469 c 0 12.703 -10.297 23 -23 23 -5.954 0 -11.384 -2.256 -15.469 -5.969 c 4.113 3.854 9.637 6.219 15.719 6.219 c 12.703 0 23 -10.297 23 -23 0 -6.081 -2.364 -11.606 -6.219 -15.719 z" transform="scale(0.28222223,0.28222223)" opacity="0.1" fill="#000" stroke="none" fill-opacity="1"/><path transform="matrix(4.3274074,0,0,3.2455556,117.19278,-35.348334)" d="m -24 13 a 1.5 2 0 1 1 -3 0 1.5 2 0 1 1 3 0 z" opacity="0.2" fill="#000" stroke="none" fill-opacity="1"/></g><g><path d="m -24 13 a 1.5 2 0 1 1 -3 0 1.5 2 0 1 1 3 0 z" transform="matrix(4.3274075,0,0,3.2455556,117.12222,-35.418889)" opacity="1" fill="url(#linearGradient4079)" stroke="none" fill-opacity="1"/><path d="m 40.03 7.531 c 3.712 4.085 5.969 9.514 5.969 15.469 c 0 12.703 -10.297 23 -23 23 c -5.954 0 -11.384 -2.256 -15.469 -5.969 c 4.178 4.291 10.01 6.969 16.469 6.969 c 12.703 0 23 -10.297 23 -23 c 0 -6.462 -2.677 -12.291 -6.969 -16.469 z" transform="scale(0.28222223,0.28222223)" opacity="0.1" fill="#000" stroke="none" fill-opacity="1"/><g transform="scale(0.28222223,0.28222223)"><g clip-path="url(#clipPath-579811960)"><g transform="translate(1,1)"><g opacity="0.1"><!-- color: #409bcb --><g><path d="m 24,9 c 8.281,0 14.996,6.715 14.996,15 0,8.281 -6.715,14.996 -14.996,14.996 C 15.715,38.996 9,32.281 9,24 9,15.715 15.715,9 24,9 m 0,0" fill="#000" fill-rule="evenodd" stroke="none"/></g></g></g></g></g><g><g transform="scale(0.28222223,0.28222223)"><g><g><g clip-path="url(#clipPath-588316483)"><!-- color: #409bcb --><g><path d="m 24,9 c 8.281,0 14.996,6.715 14.996,15 0,8.281 -6.715,14.996 -14.996,14.996 C 15.715,38.996 9,32.281 9,24 9,15.715 15.715,9 24,9 m 0,0" fill="url(#linear0)" fill-rule="evenodd" stroke="none"/><path d="m 34.47 34.68 c 0.691 -0.682 1.313 -1.439 1.863 -2.241 0.547 -0.799 1.023 -1.667 1.41 -2.569 0.387 -0.902 0.68 -1.847 0.883 -2.831 c 0.199 -0.983 0.309 -2 0.309 -3.039 l -10.635 0 c 0 0.625 -0.16 1.226 -0.39 1.766 -0.227 0.54 -0.616 1.026 -1.03 1.435 l 7.594 7.478" fill="#fff" fill-rule="nonzero" stroke="none" fill-opacity="0.498"/><path d="m 13.496 13.289 c -0.688 0.684 -1.309 1.44 -1.855 2.248 -0.547 0.808 -1.02 1.674 -1.402 2.578 c -0.387 0.904 -0.68 1.851 -0.879 2.834 -0.203 0.986 -0.309 2.01 -0.309 3.051 l 10.664 0 c 0 -0.629 0.125 -1.23 0.359 -1.77 0.23 -0.544 0.563 -1.033 0.973 -1.44 l -7.539 -7.496 m -0.012 -0.004" fill="#fff" fill-rule="nonzero" stroke="none" fill-opacity="0.498"/><path d="m 10.343 30.21 c 0.75 1.652 1.793 3.133 3.059 4.398 l 7.558 -7.566 c -0.359 -0.363 -0.669 -0.801 -0.88 -1.273" fill="#fff" fill-rule="nonzero" stroke="none" fill-opacity="0.498"/><path d="M 34.602,13.398 27.04,20.96 c 0.363,0.363 0.67,0.801 0.885,1.273 l 9.736,-4.445 C 36.907,16.14 35.868,14.659 34.602,13.393" fill="#fff" fill-rule="nonzero" stroke="none" fill-opacity="0.498"/><path d="m 39 24 c 0 1.353 -0.18 2.698 -0.535 4 l -14.465 -4 m 15 0" fill="#999" fill-rule="nonzero" stroke="none" fill-opacity="0.498"/><path d="M 9,24 C 9,22.656 9.18,21.32 9.535,20.027 L 24,24 M 9,24" fill="#999" fill-rule="nonzero" stroke="none" fill-opacity="0.498"/><path d="m 24,9 c 1.344,0 2.68,0.18 3.973,0.535 L 24,24 M 24,9" fill="#ff8dff" fill-rule="nonzero" stroke="none" fill-opacity="0.498"/><path d="m 24,39 c -1.344,0 -2.68,-0.18 -3.973,-0.535 L 24,24 m 0,15" fill="#ff8dff" fill-rule="nonzero" stroke="none" fill-opacity="0.498"/></g></g></g></g><g transform="matrix(0.31934807,-0.31881336,0.30825822,0.27739353,1.8873265,21.743744)"><g clip-path="url(#clipPath-124071972)"><g transform="translate(1,1)"><g opacity="0.1"><!-- color: #5173bf --></g></g></g></g><g transform="matrix(0.32013076,-0.32490868,0.30901372,0.28269696,1.9750363,21.295182)"><g clip-path="url(#clipPath-137054130)"><!-- color: #5173bf --></g></g></g><path d="m 5.099 5.513 -0.301 0.954 2.258 3.411 2.258 -3.411 -0.301 -0.954 l -1.387 -0.715 -1.127 0" opacity="0.1" fill="#000" fill-rule="nonzero" stroke="none" fill-opacity="1"/><g transform="matrix(0.2508642,0,0,0.23888181,1.0034569,1.1712103)"><path d="m 23 35 -9 -14 1.3 -4 5.5 -3 4.4 0 5.5 3 1.3 4" fill="url(#linearGradient4017)" fill-rule="nonzero" stroke="none"/><path d="m 30.8 17 1.2 4 -9 14.266 -9 -14.266 1.2 -4 5.5 -3 4.6 0 m 5.24 3.2 l -1.77 -0.97 0.63 1.99 2.15 2.3 z m -5.34 -2.9 -4.4 0 -3.2 1.75 -0.68 2.25 3.42 2.399 5.32 0 l 3.42 -2.4 -0.68 -2.25 m 0.87 2.55 -3.27 2.32 0.85 3.8 4.71 -3.72 z m -3.62 2.47 -5.3 0 -0.8 3.73 6.9 0 z m -8.42 -4.84 -1.77 0.97 -1.01 3.32 2.15 -2.3 z m 13.99 5.49 -4.37 3.48 -3.606 9.17 m -6.514 -15.77 -2.29 2.4 4.71 3.72 0.85 -3.8 m 6.43 4.33 -6.86 0 3.43 9.08 z m -11.65 -3.53 7.975 12.65 -3.605 -9.17" fill="#cc2012" fill-rule="nonzero" stroke="none" fill-opacity="1"/></g></g></g></svg>
